X: 43
T: Little Pine Siskin
S: https://thesession.org/tunes/23681
R: Reel
M: 4/4
L: 1/8
K: Dmaj
A,B,|:D2DE FEDF|E3E- E2FE|DEFA dcBA|B3B- B4|
BABc d2d2|F2ED F3F-|1 F2A2 FED2|B,3B,- B,2A,B,:|2 F2A2 FEB,C|D8||
B4 d4|BAF2 A4|B2d2 BAF2|A8|
B4 d4|BAF2 B4|B2d2 BAF2|E3F EDB,A,|
E4 E3F|EDB,2 A,4|E2F2 EDB,2|A,8|
E4 E3F|EDEF A4|FEDF EDB,C|D3E D2||

